X:5
T:Pas redouble D&G (tinwhistle in D)
T: pr09156 (Hanny Christen)
%%MIDI program 72   % 111 /74 / 79=whistle
R:
M:2/4
L:1/8
K:D %%MIDI gchordon
"D"D2F2 | Ad A"G"d/2B/2 | "D"A"G"d/2B/2 "D"A"G"d/2B/2 | "D"AA AF || "A7"AG EC | "D"DA, FD | "A7"AG EC | "D"D/2C/2D/2E/2 DF | "A7"AG EC | 
"D"D>E FD | "A7"AG EC | "D"D2zC/2E/2 |: "A7"EE FF | GG GD/2E/2 | "D"FF GG | AA Ad/2c/2 | "G"BB Bd/2B/2 | "D"AA A2A/2B/2 | 
AF "A7"GE | "D"D>E Fd/2c/2 | "G"BB Bd/2B/2 | "D"AA AA/2B/2 | AF "A7"Gc |1 "D"d2zD/2E/2 :|2 "D"d2zD |: [K:G] "G"BB Bd | GG GB | 
"D7"Ac FA | DD EF | "G"GB Bd | GG GB | "D7"Ac FA | "G"G2zD :: "D7"cc BB | A/2G/2F/2E/2 Dd | cc BB | 
A/2G/2F/2E/2 D2 | zA Ad | "G"zG GA | "D7"Ac FA | DD EF | "G"GB Bd | zG GB | "D7"Ac FA |1 "G"G2zD :|2 "G"G2z2 |] 

